frontend/public/assets/material-icons/folder-other-open.svg

<svg xmlns="http://www.w3.org/2000/svg" viewBox="0 0 32 32">
  <path d="M28.96692,12H9.44152a2,2,0,0,0-1.89737,1.36754L4,24V10H28a2,2,0,0,0-2-2H15.1241a2,2,0,0,1-1.28038-.46357L12.5563,6.46357A2,2,0,0,0,11.27592,6H4A2,2,0,0,0,2,8V24a2,2,0,0,0,2,2H26l4.80523-11.21213A2,2,0,0,0,28.96692,12Z" style="fill: #ff7043"/>
  <path d="M22,10A10,10,0,1,0,32,20,10,10,0,0,0,22,10ZM16,22.125a2,2,0,1,1,2-2A2,2,0,0,1,16,22.125Zm6,0a2,2,0,1,1,2-2A2,2,0,0,1,22,22.125Zm6,0a2,2,0,1,1,2-2A2,2,0,0,1,28,22.125Z" style="fill: #ffccbc;fill-rule: evenodd"/>
</svg>

<svg xmlns="http://www.w3.org/2000/svg" viewBox="0 0 32 32"><path fill="#ff7043" d="M28.967 12H9.442a2 2 0 0 0-1.898 1.368L4 24V10h24a2 2 0 0 0-2-2H15.124a2 2 0 0 1-1.28-.464l-1.288-1.072A2 2 0 0 0 11.276 6H4a2 2 0 0 0-2 2v16a2 2 0 0 0 2 2h22l4.805-11.212A2 2 0 0 0 28.967 12"/><path fill="#ffccbc" d="M22 10a10 10 0 1 0 10 10 10 10 0 0 0-10-10m-6 12.125a2 2 0 1 1 2-2 2 2 0 0 1-2 2m6 0a2 2 0 1 1 2-2 2 2 0 0 1-2 2m6 0a2 2 0 1 1 2-2 2 2 0 0 1-2 2"/></svg>
